icons/glitch-icon.svg

<?xml version="1.0" encoding="UTF-8"?>
<svg width="256px" height="200px" viewBox="0 0 256 200" version="1.1" xmlns="http://www.w3.org/2000/svg" xmlns:xlink="http://www.w3.org/1999/xlink">
    <title>Group</title>
    <defs>
        <linearGradient x1="48.6792116%" y1="-2.76243093e-06%" x2="48.6792116%" y2="99.3922613%" id="linearGradient-1">
            <stop stop-color="#E459FF" offset="0%"></stop>
            <stop stop-color="#914DFF" offset="100%"></stop>
        </linearGradient>
        <linearGradient x1="23.626192%" y1="46.6452578%" x2="65.8107837%" y2="51.3879731%" id="linearGradient-2">
            <stop stop-color="#F0A5FF" offset="0%"></stop>
            <stop stop-color="#FF676B" offset="100%"></stop>
        </linearGradient>
        <linearGradient x1="50.0000024%" y1="-2.19178973%" x2="50.0000024%" y2="103.082188%" id="linearGradient-3">
            <stop stop-color="#6E3BFF" offset="0%"></stop>
            <stop stop-color="#3633FF" offset="100%"></stop>
        </linearGradient>
        <linearGradient x1="40.569621%" y1="47.6721552%" x2="57.9619703%" y2="52.1491478%" id="linearGradient-4">
            <stop stop-color="#F0A5FF" offset="0%"></stop>
            <stop stop-color="#FF676B" offset="100%"></stop>
        </linearGradient>
    </defs>
    <g stroke="none" stroke-width="1" fill="none" fill-rule="evenodd">
        <g>
            <path d="M77.6314833,16.5452756 C53.4794163,11.694685 -3.30719785,36.4197835 0.151168296,64.1633858 L0.151168296,64.1633858 C8.7426053,66.717815 16.2242982,69.8412402 15.001562,73.0413386 L15.001562,73.0413386 L251.328629,73.0413386 C252.749101,63.578248 245.323905,56.3225394 250.348019,48.4251969 L250.348019,48.4251969 C251.933944,45.9312992 253.140538,43.0863189 253.979908,40.2494094 L253.979908,40.2494094 L253.979908,24.8945866 C253.85481,24.7815945 253.717605,24.6847441 253.57233,24.6121063 L253.57233,24.6121063 C194.889062,43.6028543 223.38729,39.5875984 160.757369,24.6201772 L160.757369,24.6201772 C149.889948,10.9804134 113.817212,1.10167323 97.001562,0 L97.001562,0 C90.5448691,0 77.6314833,16.5452756 77.6314833,16.5452756" fill="url(#linearGradient-1)"></path>
            <path d="M155.515342,64.9704724 L155.515342,72.234252 L15.1306959,72.234252 C15.2598297,74.3811024 11.712684,76.5844488 2.16888483,78.6909449 L2.16888483,78.6909449 C10.6432943,89.1830709 35.6589439,99.2676181 44.5409321,100.482283 L44.5409321,100.482283 C42.9509714,100.813189 41.1874872,101.402362 39.3110108,102.205413 L39.3110108,102.205413 C67.7123888,105.780807 101.291227,106.991437 117.989849,107.34252 L117.989849,107.34252 L173.085617,107.34252 C172.492408,107.20935 171.883058,107.076181 171.253531,106.938976 L171.253531,106.938976 C158.99792,104.630709 163.896936,106.297343 157.936601,102.903543 L157.936601,102.903543 C236.837389,83.9087598 191.124003,86.7174213 253.57233,100.482283 L253.57233,100.482283 C255.594082,96.8503937 245.909042,87.9724409 250.348019,76.6772638 L250.348019,76.6772638 C252.03483,72.3795276 251.623216,68.553937 250.775775,64.9704724 L250.775775,64.9704724 L155.515342,64.9704724 Z" fill="url(#linearGradient-2)"></path>
            <path d="M100.633452,93.6220472 L100.633452,100.885827 C87.4416211,100.611417 64.6373888,100.458071 43.1043179,100.837402 L43.1043179,100.837402 C28.8794163,104.864764 3.7507746,126.333268 0.151168296,138.960138 L0.151168296,138.960138 L0.151168296,144.10128 C0.264160422,144.367618 0.397329713,144.625886 0.554711603,144.872047 L0.554711603,144.872047 C8.06061711,147.103642 14.7190817,149.767028 15.4696722,152.53937 L15.4696722,152.53937 L121.21416,152.53937 L121.21416,145.275591 L250.86859,145.275591 C249.512684,139.262795 246.764554,133.960236 250.348019,128.326772 L250.348019,128.326772 C254.032369,120.39311 255.759534,114.949311 255.997625,111.361811 L255.997625,111.361811 L255.997625,109.767815 C254.964554,96.4266732 226.026464,117.665157 209.993688,117.834646 L209.993688,117.834646 C191.834239,114.602264 195.466129,112.185039 171.253531,106.938976 L171.253531,106.938976 C158.99792,104.630709 163.896936,106.297343 157.936601,102.903543 L157.936601,102.903543 C172.936306,99.2918307 183.432468,96.471063 191.027153,94.3605315 L191.027153,94.3605315 L191.027153,93.6220472 L100.633452,93.6220472 Z" fill="url(#linearGradient-3)"></path>
            <path d="M90.9484124,36.3188976 L91.3519557,36.3188976 C101.024889,53.449311 94.8627825,66.6007874 89.7377825,83.5334646 L89.7377825,83.5334646 C88.2930974,86.9595472 93.506877,89.6108268 94.9838455,85.9547244 L94.9838455,85.9547244 C99.0959518,70.2246063 105.609141,52.9327756 97.8086486,37.1259843 L97.8086486,37.1259843 L98.6157352,37.1259843 C135.955597,37.4125 173.743393,44.1920276 207.572428,60.5314961 L207.572428,60.5314961 C209.820164,61.0399606 217.05166,66.6007874 218.468097,62.1456693 L218.468097,62.1456693 C202.173019,42.8724409 138.764259,31.896063 111.932664,32.6829724 L111.932664,32.6829724 C110.766424,32.9049213 107.973905,32.5498031 104.781877,32.1987205 L104.781877,32.1987205 C102.279908,31.9202756 99.5277431,31.6458661 97.1105187,31.6458661 L97.1105187,31.6458661 C92.6190817,31.6458661 89.3019557,32.6062992 90.9484124,36.3188976 L90.9484124,36.3188976 Z" fill="#974DFF"></path>
            <path d="M90.9484124,36.3188976 L91.3519557,36.3188976 C97.1831565,47.3517717 98.6803022,60.838189 92.9661289,72.234252 L92.9661289,72.234252 L98.6157352,72.234252 C101.553531,60.7857283 102.538176,48.5180118 97.4051053,37.5295276 L97.4051053,37.5295276 C135.188865,37.6425197 173.521444,43.8288386 207.572428,60.9350394 L207.572428,60.9350394 C209.812093,61.3305118 217.471345,67.4038386 218.468097,62.5492126 L218.468097,62.5492126 C201.341719,42.9127953 139.526956,31.9000984 111.932664,32.6829724 L111.932664,32.6829724 C110.600971,32.9372047 107.832664,32.5659449 104.725381,32.1906496 L104.725381,32.1906496 C102.328334,31.9041339 99.7254793,31.6135827 97.4293179,31.6135827 L97.4293179,31.6135827 C93.2082549,31.6135827 90.0041211,32.586122 90.9484124,36.3188976 L90.9484124,36.3188976 Z" fill="#F1A5FF"></path>
            <path d="M76.4208533,38.3366142 L76.8243966,38.3366142 C84.6612077,49.0022638 84.3141604,61.8954724 79.2456565,73.4448819 L79.2456565,73.4448819 C77.5467392,76.2535433 81.7678022,79.0622047 83.2810896,75.8661417 L83.2810896,75.8661417 C86.1139636,69.8896654 88.0671132,63.1343504 88.1236092,56.496063 L88.1236092,56.496063 C88.1801053,49.0264764 84.7701644,41.3228346 80.8598297,35.1082677 L80.8598297,35.1082677 C80.3473297,34.1841535 79.60481,33.8048228 78.8421132,33.8048228 L78.8421132,33.8048228 C76.8889636,33.8048228 74.842999,36.2987205 76.4208533,38.3366142 L76.4208533,38.3366142 Z" fill="#974DFF"></path>
            <path d="M84.8952628,72.2346555 C87.235814,62.4689075 88.9710502,52.0857382 83.6846329,42.7759941 C82.9461486,41.246565 80.7670148,36.8318012 80.8598297,35.1086713 C79.1770541,31.9933169 74.6977234,35.0925295 76.4208533,37.9334744 L76.8243966,37.9334744 C83.9993966,48.179439 84.8952628,60.9475492 79.6491998,72.2346555 L84.8952628,72.2346555 Z" fill="#F1A5FF"></path>
            <path d="M76.4208533,37.9330709 L76.8243966,37.9330709 C83.9953612,48.1790354 84.8952628,60.9511811 79.6491998,72.234252 L79.6491998,72.234252 L84.8952628,72.234252 C87.235814,62.4685039 88.9710502,52.0853346 83.6846329,42.7755906 L83.6846329,42.7755906 C82.9461486,41.2461614 80.7629793,36.8313976 80.8598297,35.1082677 L80.8598297,35.1082677 C80.359436,34.1841535 79.6169163,33.8088583 78.8622903,33.8088583 L78.8622903,33.8088583 C77.0665226,33.8088583 75.2102234,35.9355315 76.4208533,37.9330709 L76.4208533,37.9330709 Z" fill="#F1A5FF"></path>
            <path d="M120.810617,145.275591 L120.810617,152.53937 L15.4696722,152.53937 C16.0830581,154.811319 12.7175069,157.159941 2.57242814,159.399606 L2.57242814,159.399606 C22.1160305,178.390354 46.4416211,184.387008 67.9424085,179.576772 L67.9424085,179.576772 C71.3039242,194.729823 99.6124872,203.401969 118.389357,197.332677 L118.389357,197.332677 C118.647625,193.454626 117.957566,189.58061 116.371641,186.033465 L116.371641,186.033465 C142.614062,190.500689 206.656385,170.363878 209.993688,168.681102 L209.993688,168.681102 C213.016227,168.120177 222.313865,171.441339 231.559042,174.766535 L231.559042,174.766535 C242.063275,178.543701 252.498905,182.316831 253.57233,180.383858 L253.57233,180.383858 C255.594082,176.751969 245.909042,167.874016 250.348019,156.574803 L250.348019,156.574803 C251.970263,152.44252 251.651464,148.742028 250.86859,145.275591 L250.86859,145.275591 L120.810617,145.275591 Z" fill="url(#linearGradient-4)"></path>
            <path d="M90.9484124,117.027559 L91.3519557,117.027559 C101.117704,134.258858 94.6771525,147.575787 89.7377825,164.645669 L89.7377825,164.645669 C88.2930974,168.075787 93.506877,170.723031 94.9838455,167.066929 L94.9838455,167.066929 C99.3986092,151.522441 105.439653,134.279035 97.8086486,118.637697 L97.8086486,118.637697 L98.6157352,118.238189 C135.943491,118.540846 173.775676,124.694882 207.572428,141.240157 L207.572428,141.240157 C209.820164,141.748622 217.05166,147.305413 218.468097,142.854331 L218.468097,142.854331 C202.173019,123.585138 138.764259,112.604724 111.932664,113.395669 L111.932664,113.395669 C110.766424,113.617618 107.97794,113.2625 104.789948,112.911417 L104.789948,112.911417 C102.283944,112.632972 99.5277431,112.354528 97.1105187,112.354528 L97.1105187,112.354528 C92.6190817,112.354528 89.3019557,113.318996 90.9484124,117.027559 L90.9484124,117.027559 Z" fill="#373FFF"></path>
            <path d="M90.9484124,117.027559 L91.3519557,117.027559 C97.1306959,127.943406 98.6762667,141.26437 92.9661289,152.53937 L92.9661289,152.53937 L98.6157352,152.53937 C101.573708,141.094882 102.538176,128.82313 97.4051053,117.834646 L97.4051053,117.834646 C135.148511,117.96378 173.372133,124.731201 207.572428,141.240157 L207.572428,141.240157 C209.812093,141.748622 217.059731,147.309449 218.468097,142.854331 L218.468097,142.854331 C202.177054,123.585138 138.764259,112.600689 111.932664,113.395669 L111.932664,113.395669 C110.766424,113.617618 107.981975,113.2625 104.789948,112.911417 L104.789948,112.911417 C102.283944,112.632972 99.5277431,112.354528 97.1105187,112.354528 L97.1105187,112.354528 C92.6190817,112.354528 89.3019557,113.318996 90.9484124,117.027559 L90.9484124,117.027559 Z" fill="#F1A5FF"></path>
            <path d="M76.4204498,119.046083 L76.8239931,119.046083 C84.6608041,129.711732 84.3137569,142.604941 79.2452529,154.15435 C77.5463356,156.963012 81.7673986,159.771673 83.280686,156.57561 C86.11356,150.599134 88.0667096,143.847854 88.1232057,137.205531 C88.2805876,129.526102 84.4469262,122.004055 80.8594262,115.414193 C78.8659222,111.907402 73.6803907,116.269705 76.4204498,119.046083" fill="#373FFF"></path>
            <path d="M84.8952628,152.53937 C85.9364045,145.933366 88.4262667,139.222441 86.9129793,132.362205 C86.7112077,128.371161 76.7073691,104.703346 75.6137667,118.641732 L76.8243966,118.641732 C84.067999,128.887697 84.9033337,141.63563 79.6491998,152.942913 L84.8952628,152.53937 Z" fill="#F1A5FF"></path>
            <path d="M75.6137667,118.637697 L76.8243966,118.637697 C84.067999,128.887697 84.9033337,141.63563 79.6491998,152.942913 L79.6491998,152.942913 L84.8952628,152.53937 C85.9364045,145.937402 88.4262667,139.222441 86.9129793,132.362205 L86.9129793,132.362205 C86.7555974,129.258957 80.6863061,114.291535 77.4700659,114.291535 L77.4700659,114.291535 C76.5459518,114.291535 75.8599281,115.526378 75.6137667,118.637697 L75.6137667,118.637697 Z" fill="#F1A5FF"></path>
            <path d="M43.7330384,41.1610138 C49.7498691,41.1610138 54.6287077,46.0398524 54.6287077,52.0566831 C54.6287077,58.0735138 49.7498691,62.9523524 43.7330384,62.9523524 C37.7162077,62.9523524 32.8373691,58.0735138 32.8373691,52.0566831 C32.8373691,46.0398524 37.7162077,41.1610138 43.7330384,41.1610138" fill="#000000"></path>
            <path d="M32.4346329,51.2495965 L32.4346329,51.2495965 C32.6565817,44.7888681 38.0721329,39.7324705 44.5328612,39.9584547 C50.9935896,40.1804035 56.0499872,45.5999902 55.8240029,52.0566831 C55.610125,58.3559941 50.4407352,63.3518602 44.1373888,63.3558957 C38.1366998,63.815935 32.8987077,59.324498 32.4386683,53.3278445 C32.4346329,53.3076673 32.4346329,53.2874902 32.4346329,53.267313 C33.0641604,57.7950689 37.1681959,61.0113091 41.7161289,60.5310925 C46.8411289,60.5310925 50.997625,56.3786319 50.997625,51.2495965 C50.997625,46.1245965 46.8411289,41.9681004 41.7161289,41.9681004 C36.5911289,41.9681004 32.4346329,46.1245965 32.4346329,51.2495965" fill="#FFFFFF"></path>
            <path d="M37.2779596,51.2495965 C39.0575856,51.2495965 40.5063061,52.6942815 40.5063061,54.4779429 C40.5063061,56.2616043 39.0575856,57.7062894 37.2779596,57.7062894 C35.4942982,57.7062894 34.0496132,56.2616043 34.0496132,54.4779429 C34.0496132,52.6942815 35.4942982,51.2495965 37.2779596,51.2495965" fill="#FFFFFF"></path>
            <path d="M43.7330384,121.871693 C49.7498691,121.871693 54.6287077,126.746496 54.6287077,132.763327 C54.6287077,138.780157 49.7498691,143.658996 43.7330384,143.658996 C37.7162077,143.658996 32.8373691,138.780157 32.8373691,132.763327 C32.8373691,126.746496 37.7162077,121.871693 43.7330384,121.871693" fill="#000000"></path>
            <path d="M32.4346329,131.554311 L32.4346329,131.554311 C32.6565817,125.093583 38.0721329,120.037185 44.5328612,120.263169 C50.9935896,120.485118 56.0499872,125.904705 55.8240029,132.361398 C55.610125,138.664744 50.4407352,143.656575 44.1373888,143.66061 C38.1366998,144.12065 32.8987077,139.633248 32.4386683,133.632559 C32.4346329,133.612382 32.4346329,133.592205 32.4346329,133.572028 C32.8543179,138.232953 36.9785305,141.671142 41.6394557,141.247421 C41.6677037,141.243386 41.6878809,141.23935 41.7161289,141.23935 C46.8411289,141.235315 50.9935896,137.074783 50.9895541,131.949783 C50.9855187,126.824783 46.8249872,122.672323 41.6959518,122.676358 C36.7323691,122.684429 32.6525462,126.594764 32.4346329,131.554311" fill="#FFFFFF"></path>
            <path d="M37.2779596,131.960276 C39.0575856,131.960276 40.5063061,133.400925 40.5063061,135.188622 C40.5063061,136.968248 39.0575856,138.416969 37.2779596,138.416969 C35.4942982,138.416969 34.0496132,136.968248 34.0496132,135.188622 C34.0496132,133.400925 35.4942982,131.960276 37.2779596,131.960276" fill="#FFFFFF"></path>
        </g>
    </g>
</svg>

<svg xmlns="http://www.w3.org/2000/svg" viewBox="0 0 255.998 199.286">
  <defs>
    <linearGradient id="a" x1="66.302" x2="66.302" y1="0" y2="135.374" gradientTransform="scale(1.86473 .53627)" gradientUnits="userSpaceOnUse">
      <stop offset="0%" stop-color="#E459FF"/>
      <stop offset="100%" stop-color="#914DFF"/>
    </linearGradient>
    <linearGradient id="b" x1="25.288" x2="68.852" y1="206.515" y2="211.413" gradientTransform="scale(2.43719 .4103)" gradientUnits="userSpaceOnUse">
      <stop offset="0%" stop-color="#F0A5FF"/>
      <stop offset="100%" stop-color="#FF676B"/>
    </linearGradient>
    <linearGradient id="c" x1="61.46" x2="61.46" y1="192.404" y2="321.655" gradientTransform="scale(2.08386 .47988)" gradientUnits="userSpaceOnUse">
      <stop offset="0%" stop-color="#6E3BFF"/>
      <stop offset="100%" stop-color="#3633FF"/>
    </linearGradient>
    <linearGradient id="d" x1="48.455" x2="68.717" y1="368.89" y2="374.106" gradientTransform="scale(2.15696 .46362)" gradientUnits="userSpaceOnUse">
      <stop offset="0%" stop-color="#F0A5FF"/>
      <stop offset="100%" stop-color="#FF676B"/>
    </linearGradient>
  </defs>
  <g fill="none" fill-rule="evenodd">
    <path fill="url(#a)" d="M77.631 16.545C53.48 11.695-3.307 36.42.151 64.163c8.592 2.555 16.073 5.678 14.85 8.878H251.33c1.42-9.463-6.005-16.718-.981-24.616 1.586-2.494 2.793-5.339 3.632-8.176V24.895a1.844 1.844 0 0 0-.408-.283c-58.683 18.99-30.185 14.976-92.815.008C149.89 10.98 113.817 1.102 97.002 0c-6.457 0-19.37 16.545-19.37 16.545" style="fill:url(#a)"/>
    <path fill="url(#b)" d="M155.515 64.97v7.264H15.131c.129 2.147-3.418 4.35-12.962 6.457 8.474 10.492 33.49 20.577 42.372 21.791-1.59.331-3.354.92-5.23 1.723 28.401 3.576 61.98 4.786 78.679 5.138h55.096c-.594-.134-1.203-.267-1.832-.404-12.256-2.308-7.357-.642-13.317-4.035 78.9-18.995 33.187-16.187 95.635-2.422 2.022-3.632-7.663-12.51-3.224-23.805 1.687-4.297 1.275-8.123.428-11.707z" style="fill:url(#b)"/>
    <path fill="url(#c)" d="M100.633 93.622v7.264c-13.191-.275-35.996-.428-57.529-.049C28.88 104.865 3.751 126.333.151 138.96v5.141c.113.267.246.525.404.771 7.506 2.232 14.164 4.895 14.915 7.667h105.744v-7.263H250.87c-1.356-6.013-4.104-11.316-.521-16.95 3.684-7.933 5.412-13.377 5.65-16.964v-1.594c-1.033-13.341-29.972 7.897-46.004 8.067-18.16-3.233-14.528-5.65-38.74-10.896-12.256-2.308-7.357-.642-13.317-4.035 15-3.612 25.495-6.433 33.09-8.543v-.739z" style="fill:url(#c)"/>
    <path fill="#974dff" d="M90.948 36.319h.404c9.673 17.13 3.51 30.282-1.614 47.214-1.445 3.427 3.769 6.078 5.246 2.422 4.112-15.73 10.625-33.022 2.825-48.829h.807c37.34.287 75.127 7.066 108.956 23.405 2.248.509 9.48 6.07 10.896 1.615-16.295-19.274-79.704-30.25-106.535-29.463-1.167.222-3.96-.133-7.151-.484-2.502-.279-5.254-.553-7.671-.553-4.492 0-7.809.96-6.163 4.673z"/>
    <path fill="#f1a5ff" d="M90.948 36.319h.404c5.831 11.033 7.328 24.52 1.614 35.915h5.65c2.938-11.448 3.922-23.716-1.21-34.704 37.783.113 76.115 6.299 110.166 23.405 2.24.396 9.9 6.469 10.896 1.614-17.126-19.636-78.941-30.649-106.535-29.866-1.332.254-4.1-.117-7.208-.492-2.397-.287-5-.577-7.296-.577-4.22 0-7.425.972-6.48 4.705z"/>
    <path fill="#974dff" d="M76.42 38.337h.404c7.837 10.665 7.49 23.558 2.422 35.108-1.7 2.809 2.522 5.617 4.035 2.421 2.833-5.976 4.786-12.732 4.843-19.37.056-7.47-3.354-15.173-7.264-21.388-.513-.924-1.255-1.303-2.018-1.303-1.953 0-3.999 2.494-2.421 4.532z"/>
    <path fill="#f1a5ff" d="M84.895 72.235c2.34-9.766 4.076-20.15-1.21-29.459-.739-1.53-2.918-5.944-2.825-7.667-1.683-3.116-6.162-.016-4.44 2.824h.404C84 48.18 84.895 60.948 79.65 72.235z"/>
    <path fill="#f1a5ff" d="M76.42 37.933h.404c7.171 10.246 8.071 23.018 2.825 34.301h5.246c2.34-9.765 4.076-20.149-1.21-29.458-.739-1.53-2.922-5.945-2.825-7.668-.5-.924-1.243-1.3-1.998-1.3-1.795 0-3.652 2.128-2.441 4.125z"/>
    <path fill="url(#d)" d="M120.81 145.276v7.263H15.47c.613 2.272-2.752 4.62-12.898 6.86 19.544 18.991 43.87 24.988 65.37 20.178 3.362 15.153 31.67 23.825 50.447 17.756a23.79 23.79 0 0 0-2.017-11.3c26.242 4.468 90.284-15.67 93.622-17.352 3.022-.56 12.32 2.76 21.565 6.086 10.504 3.777 20.94 7.55 22.013 5.617 2.022-3.632-7.663-12.51-3.224-23.81 1.622-4.131 1.303-7.832.52-11.298z" style="fill:url(#d)"/>
    <path fill="#373fff" d="M90.948 117.028h.404c9.766 17.23 3.325 30.548-1.614 47.618-1.445 3.43 3.769 6.077 5.246 2.42 4.415-15.544 10.456-32.787 2.825-48.428l.807-.4c37.327.303 75.16 6.457 108.956 23.002 2.248.509 9.48 6.065 10.896 1.614-16.295-19.269-79.704-30.25-106.535-29.458-1.167.222-3.955-.134-7.143-.485-2.506-.278-5.262-.556-7.68-.556-4.49 0-7.808.964-6.162 4.673z"/>
    <path fill="#f1a5ff" d="M90.948 117.028h.404c5.779 10.915 7.324 24.236 1.614 35.511h5.65c2.958-11.444 3.922-23.716-1.21-34.704 37.743.129 75.966 6.896 110.166 23.405 2.24.509 9.488 6.07 10.896 1.614-16.29-19.269-79.704-30.253-106.535-29.458-1.167.222-3.951-.134-7.143-.485-2.506-.278-5.262-.556-7.68-.556-4.49 0-7.808.964-6.162 4.673z"/>
    <path fill="#373fff" d="M76.42 119.046h.404c7.837 10.666 7.49 23.559 2.421 35.108-1.699 2.809 2.522 5.618 4.036 2.422 2.833-5.977 4.786-12.728 4.842-19.37.158-7.68-3.676-15.202-7.264-21.792-1.993-3.507-7.179.856-4.439 3.632"/>
    <path fill="#f1a5ff" d="M84.895 152.54c1.041-6.607 3.531-13.318 2.018-20.178-.202-3.99-10.206-27.659-11.3-13.72h1.211c7.244 10.246 8.08 22.994 2.825 34.3z"/>
    <path fill="#f1a5ff" d="M75.614 118.638h1.21c7.244 10.25 8.08 22.998 2.825 34.305l5.246-.404c1.041-6.602 3.531-13.317 2.018-20.177-.157-3.103-6.227-18.07-9.443-18.07-.924 0-1.61 1.234-1.856 4.346z"/>
    <path fill="#000" d="M43.733 41.161c6.017 0 10.896 4.879 10.896 10.896 0 6.017-4.88 10.895-10.896 10.895-6.017 0-10.896-4.878-10.896-10.895 0-6.017 4.88-10.896 10.896-10.896"/>
    <path fill="#fff" d="M32.435 51.25c.222-6.461 5.637-11.518 12.098-11.292 6.46.222 11.517 5.642 11.291 12.099-.214 6.299-5.383 11.295-11.687 11.299-6 .46-11.238-4.032-11.698-10.028-.004-.02-.004-.04-.004-.06a8.474 8.474 0 0 0 9.281 7.263 9.28 9.28 0 0 0 9.282-9.281c0-5.125-4.157-9.282-9.282-9.282s-9.281 4.157-9.281 9.282"/>
    <path fill="#fff" d="M37.278 51.25a3.23 3.23 0 0 1 3.228 3.228 3.227 3.227 0 1 1-3.228-3.228"/>
    <path fill="#000" d="M43.733 121.872c6.017 0 10.896 4.875 10.896 10.891 0 6.017-4.88 10.896-10.896 10.896-6.017 0-10.896-4.879-10.896-10.896 0-6.017 4.88-10.891 10.896-10.891"/>
    <path fill="#fff" d="M32.435 131.554c.222-6.46 5.637-11.517 12.098-11.29 6.46.221 11.517 5.64 11.291 12.097-.214 6.304-5.383 11.296-11.687 11.3-6 .46-11.238-4.028-11.698-10.028-.004-.02-.004-.04-.004-.06.42 4.66 4.544 8.098 9.204 7.674.029-.004.049-.008.077-.008 5.125-.004 9.278-4.164 9.274-9.29-.004-5.124-4.165-9.277-9.294-9.273a9.285 9.285 0 0 0-9.261 8.878"/>
    <path fill="#fff" d="M37.278 131.96a3.227 3.227 0 1 1 0 6.457 3.23 3.23 0 0 1-3.228-3.228 3.225 3.225 0 0 1 3.228-3.229"/>
  </g>
</svg>
